X:228
T: Der Raubmord von Stockheim (10), S. 51
N: T0115
O: Luxemburg
S: Singendes Volk, Esch-Alzette 1937 posth.]
N: WILTZ;
N: gesungen von hhh Johann Lambert am 4.7.1915
R: "erzhlende Lieder"]
M: 4/4
L: 1/8
K: F
CFA | c4c2dc | AcF2z2
GA | B2B2B2cA | G2z3
CFA | c4c2dc | AcF2z2
F2 | E2C2DDDD | C2z3
ABE | F2F2d3c | cBB2z
BBA | G3Gc3B | B2A2z
AAA | c2A2f2ed | dcc2z
ABA | G2ddd2cE | E2F2z

@@@ Tune index: 8282
